X: 515
T: Aaron's Key
R: jig
M: 6/8
K: Bminor
E|:FBB Bcd|c2A ABc|d3 Bcd|edc BAG|
FBB Bcd|c2A ABc|dcd efg|1 fed ~B2A:|2 fed ~B2c||
|:d2A def|ecA ~a3|~f3 fed|cde ABc|
BFB cAc|dcd efg|fed cde|1 dBA ~B2c:|2 dBA ~B2A||

